!!!OTL: "Dei Heufahrt" ES HATTE EIN BAUER EIN SCHOENES WEIB
!!!ARE: Europa, Mitteleuropa, Deutschland, Rhein
!!!SCT: Z1082
!!!YEM: Copyright 1995, estate of Helmut Schaffrath.
**kern
*ICvox
*Ivox
*M6/8
*k[f#c#g#]
*A:
{8e
=1
8.cc#
16b
8a
8a
8g#
8a
=2
8ee
8dd
8b
4b}
{8b
=3
8cc#
8b
8a
8a
8g#
8a
=4
4b
4.r}
{8b
=5
4b
8b
8b
8cc#
8dd#
=6
8ee
8dd#
8cc#
4b}
{8b
=7
8b
8b
8b
8b
8a
8f#
=8
4e
4.r}
{8e
=9
8.cc#
16dd
8cc#
8b
8a
8b
=10
4a
4.r}
{8e
=11
8.cc#
16dd
8cc#
8b
8a
8b
=12
8a
8cc#
8ee
8a
8cc#}
{8ee
=13
4ff#
8dd
4dd
8ff#
=14
4ee
8cc#
4cc#}
{8ee
=15
8b
8cc#
8dd
8e
8f#
8g#
=16
4a
4.r}
==
!!!AGN: Romanze, Ballade
!!!ONB: ESAC (Essen Associative Code) Database: ZUCCAL
!!!AMT: compound duple
!!!AIN: vox
!!!EED: Helmut Schaffrath
!!!EEV: 1.0
*-
